src/assets/buyer_icon.svg

<svg fill="none" height="167" viewBox="0 0 446 167" width="446" xmlns="http://www.w3.org/2000/svg"><path d="m313.988 58.2613v.0015c-1.236 3.1357-4.369 5.2833-7.744 5.2833h-32.791c-.17 0-.327.0288-.475.0948-.146.0648-.265.1578-.371.2633-.001.0009-.002.0018-.003.0027l-15.54 14.9095v-14.0601c0-.3374-.114-.6458-.339-.8709-.224-.2251-.533-.3393-.87-.3393h-7.468c-4.613 0-8.32-3.7134-8.32-8.3377v-35.4389c0-4.6243 3.707-8.3377 8.32-8.3377h35.538c.338 0 .646-.1142.87-.3393.225-.2251.339-.5335.339-.8709 0-.33736-.114-.6458-.339-.87085-.224-.22511-.532-.33931-.87-.33931h-35.538c-5.946 0-10.737 4.80226-10.737 10.75806v35.4389c0 5.9558 4.791 10.7581 10.737 10.7581h6.26v15.6491c0 .2331.059.4528.187.6455.119.1785.285.3163.481.4209.11.0856.234.1154.311.1282.093.0156.182.0156.225.0156h.004c.17 0 .327-.0288.475-.0948.146-.0648.265-.1577.371-.2632.001-.0009.002-.0019.003-.0028l17.233-16.4985h32.307c4.437 0 8.428-2.7551 10.026-6.8448.251-.6312-.125-1.3371-.711-1.5716-.631-.2533-1.337.1253-1.571.7112zm.239-40.0461h-11.839v-8.68173c0-3.41857-1.051-6.04223-3.063-7.50827v-.00068c-1.633-1.181655-3.546-1.422515-5.047-1.367229-.753.027747-1.412.130323-1.894.231698-.241.050722-.44.101403-.585.142811-.073.02068-.133.03934-.18.05488-.038.01254-.088.02989-.125.04829-.427.21427-.794.66226-.794 1.17309v9.46184c0 3.759-2.158 6.2898-4.404 7.9092-2.223 1.6029-4.489 2.2792-4.681 2.3298-.334.0704-.578.3006-.721.5585-.05.0889-.089.1849-.117.2849-.816-1.2377-2.217-2.0566-3.805-2.0566h-4.807c-2.512 0-4.556 2.0498-4.556 4.5649v21.6762c0 2.5151 2.044 4.5648 4.556 4.5648h4.807c1.411 0 2.669-.6657 3.515-1.7223 1.365 1.841 3.491 3.0986 6.014 3.0986h23.091c2.507 0 4.588-.6616 6.113-1.9185 1.527-1.258 2.465-3.0851 2.732-5.3511l3.002-19.0821c.271-1.364.086-2.6313-.358-3.8776l-.004-.0109-.004-.0105c-1.171-2.707-3.871-4.512-6.846-4.512zm-32.699 7.1454c0-.3786-.046-.7467-.133-1.0988.239.1175.532.1634.819.0619.005-.0009.009-.0018.013-.0027.008-.0019.017-.004.025-.0061.031-.0076.07-.0182.116-.0314.092-.0266.218-.0659.374-.1185.311-.1054.743-.2653 1.255-.4855 1.023-.4401 2.372-1.124 3.718-2.0999 2.69-1.9504 5.402-5.0967 5.402-9.8097v-8.48972c1.166-.22216 3.222-.33199 4.769.77478l.001.00113c1.324.93657 2.084 2.77393 2.084 5.5634v9.89191c0 .3374.114.6458.338.8709.225.2251.533.3393.871.3393h13.047c2.001 0 3.767 1.2017 4.572 3.058l.007.0155.008.0148c.38.6852.467 1.5443.305 2.4344l-.001.0081-3.004 19.0957-.002.0072v.0072c-.246 2.1355-1.199 3.3926-2.39 4.1291-1.21.7476-2.703.98-4.044.98h-23.177c-2.725 0-4.973-2.2511-4.973-4.9831zm-4.556-2.1445c1.18 0 2.14.9608 2.14 2.1445v21.5902c0 1.1836-.96 2.1445-2.14 2.1445h-4.807c-1.179 0-2.139-.9609-2.139-2.1445v-21.5902c0-1.1837.96-2.1445 2.139-2.1445z" fill="#30d5c8"/><path d="m313.988 58.2613v.0015c-1.236 3.1357-4.369 5.2833-7.744 5.2833h-32.791c-.17 0-.327.0288-.475.0948-.146.0648-.265.1578-.371.2633-.001.0009-.002.0018-.003.0027l-15.54 14.9095v-14.0601c0-.3374-.114-.6458-.339-.8709-.224-.2251-.533-.3393-.87-.3393h-7.468c-4.613 0-8.32-3.7134-8.32-8.3377v-35.4389c0-4.6243 3.707-8.3377 8.32-8.3377h35.538c.338 0 .646-.1142.87-.3393.225-.2251.339-.5335.339-.8709 0-.33736-.114-.6458-.339-.87085-.224-.22511-.532-.33931-.87-.33931h-35.538c-5.946 0-10.737 4.80226-10.737 10.75806v35.4389c0 5.9558 4.791 10.7581 10.737 10.7581h6.26v15.6491c0 .2331.059.4528.187.6455.119.1785.285.3163.481.4209.11.0856.234.1154.311.1282.093.0156.182.0156.225.0156h.004c.17 0 .327-.0288.475-.0948.146-.0648.265-.1577.371-.2632.001-.0009.002-.0019.003-.0028l17.233-16.4985h32.307c4.437 0 8.428-2.7551 10.026-6.8448.251-.6312-.125-1.3371-.711-1.5716-.631-.2533-1.337.1253-1.571.7112zm.239-40.0461h-11.839v-8.68173c0-3.41857-1.051-6.04223-3.063-7.50827v-.00068c-1.633-1.181655-3.546-1.422515-5.047-1.367229-.753.027747-1.412.130323-1.894.231698-.241.050722-.44.101403-.585.142811-.073.02068-.133.03934-.18.05488-.038.01254-.088.02989-.125.04829-.427.21427-.794.66226-.794 1.17309v9.46184c0 3.759-2.158 6.2898-4.404 7.9092-2.223 1.6029-4.489 2.2792-4.681 2.3298-.334.0704-.578.3006-.721.5585-.05.0889-.089.1849-.117.2849-.816-1.2377-2.217-2.0566-3.805-2.0566h-4.807c-2.512 0-4.556 2.0498-4.556 4.5649v21.6762c0 2.5151 2.044 4.5648 4.556 4.5648h4.807c1.411 0 2.669-.6657 3.515-1.7223 1.365 1.841 3.491 3.0986 6.014 3.0986h23.091c2.507 0 4.588-.6616 6.113-1.9185 1.527-1.258 2.465-3.0851 2.732-5.3511l3.002-19.0821c.271-1.364.086-2.6313-.358-3.8776l-.004-.0109-.004-.0105c-1.171-2.707-3.871-4.512-6.846-4.512zm-32.699 7.1454c0-.3786-.046-.7467-.133-1.0988.239.1175.532.1634.819.0619.005-.0009.009-.0018.013-.0027.008-.0019.017-.004.025-.0061.031-.0076.07-.0182.116-.0314.092-.0266.218-.0659.374-.1185.311-.1054.743-.2653 1.255-.4855 1.023-.4401 2.372-1.124 3.718-2.0999 2.69-1.9504 5.402-5.0967 5.402-9.8097v-8.48972c1.166-.22216 3.222-.33199 4.769.77478l.001.00113c1.324.93657 2.084 2.77393 2.084 5.5634v9.89191c0 .3374.114.6458.338.8709.225.2251.533.3393.871.3393h13.047c2.001 0 3.767 1.2017 4.572 3.058l.007.0155.008.0148c.38.6852.467 1.5443.305 2.4344l-.001.0081-3.004 19.0957-.002.0072v.0072c-.246 2.1355-1.199 3.3926-2.39 4.1291-1.21.7476-2.703.98-4.044.98h-23.177c-2.725 0-4.973-2.2511-4.973-4.9831zm-4.556-2.1445c1.18 0 2.14.9608 2.14 2.1445v21.5902c0 1.1836-.96 2.1445-2.14 2.1445h-4.807c-1.179 0-2.139-.9609-2.139-2.1445v-21.5902c0-1.1837.96-2.1445 2.139-2.1445z" stroke="#30d5c8" stroke-width=".7"/><path d="m313.988 58.2613v.0015c-1.236 3.1357-4.369 5.2833-7.744 5.2833h-32.791c-.17 0-.327.0288-.475.0948-.146.0648-.265.1578-.371.2633-.001.0009-.002.0018-.003.0027l-15.54 14.9095v-14.0601c0-.3374-.114-.6458-.339-.8709-.224-.2251-.533-.3393-.87-.3393h-7.468c-4.613 0-8.32-3.7134-8.32-8.3377v-35.4389c0-4.6243 3.707-8.3377 8.32-8.3377h35.538c.338 0 .646-.1142.87-.3393.225-.2251.339-.5335.339-.8709 0-.33736-.114-.6458-.339-.87085-.224-.22511-.532-.33931-.87-.33931h-35.538c-5.946 0-10.737 4.80226-10.737 10.75806v35.4389c0 5.9558 4.791 10.7581 10.737 10.7581h6.26v15.6491c0 .2331.059.4528.187.6455.119.1785.285.3163.481.4209.11.0856.234.1154.311.1282.093.0156.182.0156.225.0156h.004c.17 0 .327-.0288.475-.0948.146-.0648.265-.1577.371-.2632.001-.0009.002-.0019.003-.0028l17.233-16.4985h32.307c4.437 0 8.428-2.7551 10.026-6.8448.251-.6312-.125-1.3371-.711-1.5716-.631-.2533-1.337.1253-1.571.7112zm.239-40.0461h-11.839v-8.68173c0-3.41857-1.051-6.04223-3.063-7.50827v-.00068c-1.633-1.181655-3.546-1.422515-5.047-1.367229-.753.027747-1.412.130323-1.894.231698-.241.050722-.44.101403-.585.142811-.073.02068-.133.03934-.18.05488-.038.01254-.088.02989-.125.04829-.427.21427-.794.66226-.794 1.17309v9.46184c0 3.759-2.158 6.2898-4.404 7.9092-2.223 1.6029-4.489 2.2792-4.681 2.3298-.334.0704-.578.3006-.721.5585-.05.0889-.089.1849-.117.2849-.816-1.2377-2.217-2.0566-3.805-2.0566h-4.807c-2.512 0-4.556 2.0498-4.556 4.5649v21.6762c0 2.5151 2.044 4.5648 4.556 4.5648h4.807c1.411 0 2.669-.6657 3.515-1.7223 1.365 1.841 3.491 3.0986 6.014 3.0986h23.091c2.507 0 4.588-.6616 6.113-1.9185 1.527-1.258 2.465-3.0851 2.732-5.3511l3.002-19.0821c.271-1.364.086-2.6313-.358-3.8776l-.004-.0109-.004-.0105c-1.171-2.707-3.871-4.512-6.846-4.512zm-32.699 7.1454c0-.3786-.046-.7467-.133-1.0988.239.1175.532.1634.819.0619.005-.0009.009-.0018.013-.0027.008-.0019.017-.004.025-.0061.031-.0076.07-.0182.116-.0314.092-.0266.218-.0659.374-.1185.311-.1054.743-.2653 1.255-.4855 1.023-.4401 2.372-1.124 3.718-2.0999 2.69-1.9504 5.402-5.0967 5.402-9.8097v-8.48972c1.166-.22216 3.222-.33199 4.769.77478l.001.00113c1.324.93657 2.084 2.77393 2.084 5.5634v9.89191c0 .3374.114.6458.338.8709.225.2251.533.3393.871.3393h13.047c2.001 0 3.767 1.2017 4.572 3.058l.007.0155.008.0148c.38.6852.467 1.5443.305 2.4344l-.001.0081-3.004 19.0957-.002.0072v.0072c-.246 2.1355-1.199 3.3926-2.39 4.1291-1.21.7476-2.703.98-4.044.98h-23.177c-2.725 0-4.973-2.2511-4.973-4.9831zm-4.556-2.1445c1.18 0 2.14.9608 2.14 2.1445v21.5902c0 1.1836-.96 2.1445-2.14 2.1445h-4.807c-1.179 0-2.139-.9609-2.139-2.1445v-21.5902c0-1.1837.96-2.1445 2.139-2.1445z" stroke="#30d5c8" stroke-width=".7"/><path d="m8.1 143h29.6c15.1 0 23.8-7.3 23.8-19.8 0-8.5-3.9-14.3-11.6-16.8 6.9-2.9 10.5-8.7001 10.5-16.8001 0-12.2-8.8-19.7-23.2-19.7h-29.1zm28-61.8001c7.2 0 11.2 3.4 11.2 9.7 0 6.5-3.9 10.2001-10.9 10.2001h-15.5v-19.9001zm1.1 30.7001c7.1 0 11.2 3.5 11.2 9.7 0 6.6-4 10.1-11.2 10.1h-16.3v-19.8zm67.737-18.3001v25.9001c0 9.4-3.7 13.9-11.4003 13.9-6.8 0-10.5-3.8-10.5-13.2v-26.6001h-12.2v30.9001c0 12.1 6.7 19.8 18.1 19.8 6.6 0 13.0003-3.2 16.0003-7.9l.9 6.6h11.3v-49.4001zm20.501 72.3001c2.7.7 5.7 1.1 9.1 1.1 8.1 0 13.3-3.8 17-13l24.2-60.4001h-12.6l-13.4 36.0001-12.7-36.0001h-12.9l19.9 51.5001-1.4 3.7c-2.1 5.8-5.1 6.9-9.9 6.9h-7.3zm77.083-21.6c12.9 0 21.9-6.5 24-17.3h-11.3c-1.4 4.7-5.8 7.3-12.5 7.3-8.1 0-12.7-4.4-13.6-13.1l37.2-.1v-3.7c0-15.4-9.4-25.3001-24.2-25.3001-14.5 0-24.6 10.7001-24.6 26.2001 0 15.3 10.3 26 25 26zm-.3-42.2c7.3 0 12 4.5 12 11.3h-24.8c1.2-7.4 5.6-11.3 12.8-11.3zm64.864-8.7001c-2-.5-3.7-.7-5.4-.7-6.6 0-11.3 3.3-13.4 8.2001l-.7-7.2001h-11.5v49.3001h12.2v-24c0-9.6 5.5-14.3 14.3-14.3h4.5zm46.73 49.6001v-10.2h-25l25-29.1v-10.1001h-39.9v10.2001h24.6l-24.6 29.2v10zm24.665 1.3c7.7 0 14.4-3.5 16.5-8.6l.9 7.3h10.7v-30c0-13.7001-8.2-20.9001-21.5-20.9001-13.4 0-22.2 7-22.2 17.7001h10.4c0-5.2 4-8.2 11.2-8.2 6.2 0 10.2 2.7 10.2 9.4v1.1l-14.8 1.1c-11.7.9-18.3 6.6-18.3 15.7 0 9.3 6.4 15.4 16.9 15.4zm4-9.2c-5.5 0-8.5-2.2-8.5-6.7 0-4 2.9-6.5 10.5-7.2l10.3-.8v2.6c0 7.6-4.8 12.1-12.3 12.1zm36.086 30.8h12.2v-29.5c3.1 5 9.5 7.9 16.9 7.9 14.7 0 23.1-11.2 23.1-26.6 0-15.5-9.2-25.6001-23.1-25.6001-7.5 0-14 3.3-17 9.0001l-.8-7.5001h-11.3zm12.3-47.6c0-8.9 5.5-15.1 13.9-15.1 8.6 0 13.7 6.3 13.7 15.1s-5.1 15-13.7 15c-8.4 0-13.9-6.1-13.9-15z" fill="#fff"/></svg>

<svg width="446" height="167" viewBox="0 0 446 167" fill="none" xmlns="http://www.w3.org/2000/svg">
<path d="M313.988 58.2613L313.988 58.2628C312.752 61.3985 309.619 63.5461 306.244 63.5461L273.453 63.5461C273.283 63.5461 273.126 63.5749 272.978 63.6409C272.832 63.7057 272.713 63.7987 272.607 63.9042C272.606 63.9051 272.605 63.906 272.604 63.9069L257.064 78.8164V64.7563C257.064 64.4189 256.95 64.1105 256.725 63.8854C256.501 63.6603 256.192 63.5461 255.855 63.5461L248.387 63.5461C243.774 63.5461 240.067 59.8327 240.067 55.2084V19.7695C240.067 15.1452 243.774 11.4318 248.387 11.4318L283.925 11.4318C284.263 11.4318 284.571 11.3176 284.795 11.0925C285.02 10.8674 285.134 10.559 285.134 10.2216C285.134 9.88424 285.02 9.5758 284.795 9.35075C284.571 9.12564 284.263 9.01144 283.925 9.01144L248.387 9.01144C242.441 9.01144 237.65 13.8137 237.65 19.7695V55.2084C237.65 61.1642 242.441 65.9665 248.387 65.9665H254.647L254.647 81.6156C254.647 81.8487 254.706 82.0684 254.834 82.2611C254.953 82.4396 255.119 82.5774 255.315 82.682C255.425 82.7676 255.549 82.7974 255.626 82.8102C255.719 82.8258 255.808 82.8258 255.851 82.8258H255.855C256.025 82.8258 256.182 82.797 256.33 82.731C256.476 82.6662 256.595 82.5733 256.701 82.4678C256.702 82.4669 256.703 82.4659 256.704 82.465L273.937 65.9665H306.244C310.681 65.9665 314.672 63.2114 316.27 59.1217C316.521 58.4905 316.145 57.7846 315.559 57.5501C314.928 57.2968 314.222 57.6754 313.988 58.2613ZM314.227 18.2152L302.388 18.2152V9.53347C302.388 6.1149 301.337 3.49124 299.325 2.0252L299.325 2.02452C297.692 0.842865 295.779 0.602005 294.278 0.657291C293.525 0.685038 292.866 0.787614 292.384 0.888989C292.143 0.939711 291.944 0.990392 291.799 1.0318C291.726 1.05248 291.666 1.07114 291.619 1.08668C291.581 1.09922 291.531 1.11657 291.494 1.13497C291.067 1.34924 290.7 1.79723 290.7 2.30806V11.7699C290.7 15.5289 288.542 18.0597 286.296 19.6791C284.073 21.282 281.807 21.9583 281.615 22.0089C281.281 22.0793 281.037 22.3095 280.894 22.5674C280.844 22.6563 280.805 22.7523 280.777 22.8523C279.961 21.6146 278.56 20.7957 276.972 20.7957L272.165 20.7957C269.653 20.7957 267.609 22.8455 267.609 25.3606V47.0368C267.609 49.5519 269.653 51.6016 272.165 51.6016H276.972C278.383 51.6016 279.641 50.9359 280.487 49.8793C281.852 51.7203 283.978 52.9779 286.501 52.9779H309.592C312.099 52.9779 314.18 52.3163 315.705 51.0594C317.232 49.8014 318.17 47.9743 318.437 45.7083L321.439 26.6262C321.71 25.2622 321.525 23.9949 321.081 22.7486L321.077 22.7377L321.073 22.7272C319.902 20.0202 317.202 18.2152 314.227 18.2152ZM281.528 25.3606C281.528 24.982 281.482 24.6139 281.395 24.2618C281.634 24.3793 281.927 24.4252 282.214 24.3237C282.219 24.3228 282.223 24.3219 282.227 24.321C282.235 24.3191 282.244 24.317 282.252 24.3149C282.283 24.3073 282.322 24.2967 282.368 24.2835C282.46 24.2569 282.586 24.2176 282.742 24.165C283.053 24.0596 283.485 23.8997 283.997 23.6795C285.02 23.2394 286.369 22.5555 287.715 21.5796C290.405 19.6292 293.117 16.4829 293.117 11.7699V3.28018C294.283 3.05802 296.339 2.94819 297.886 4.05496L297.887 4.05609C299.211 4.99266 299.971 6.83002 299.971 9.61949V19.5114C299.971 19.8488 300.085 20.1572 300.309 20.3823C300.534 20.6074 300.842 20.7216 301.18 20.7216L314.227 20.7216C316.228 20.7216 317.994 21.9233 318.799 23.7796L318.806 23.7951L318.814 23.8099C319.194 24.4951 319.281 25.3542 319.119 26.2443L319.119 26.2443L319.118 26.2524L316.114 45.3481L316.112 45.3553L316.112 45.3625C315.866 47.498 314.913 48.7551 313.722 49.4916C312.512 50.2392 311.019 50.4716 309.678 50.4716H286.501C283.776 50.4716 281.528 48.2205 281.528 45.4885V25.3606ZM276.972 23.2161C278.152 23.2161 279.112 24.1769 279.112 25.3606V46.9508C279.112 48.1344 278.152 49.0953 276.972 49.0953H272.165C270.986 49.0953 270.026 48.1344 270.026 46.9508V25.3606C270.026 24.1769 270.986 23.2161 272.165 23.2161L276.972 23.2161Z" fill="#30D5C8"/>
<path d="M313.988 58.2613L313.988 58.2628C312.752 61.3985 309.619 63.5461 306.244 63.5461L273.453 63.5461C273.283 63.5461 273.126 63.5749 272.978 63.6409C272.832 63.7057 272.713 63.7987 272.607 63.9042C272.606 63.9051 272.605 63.906 272.604 63.9069L257.064 78.8164V64.7563C257.064 64.4189 256.95 64.1105 256.725 63.8854C256.501 63.6603 256.192 63.5461 255.855 63.5461L248.387 63.5461C243.774 63.5461 240.067 59.8327 240.067 55.2084V19.7695C240.067 15.1452 243.774 11.4318 248.387 11.4318L283.925 11.4318C284.263 11.4318 284.571 11.3176 284.795 11.0925C285.02 10.8674 285.134 10.559 285.134 10.2216C285.134 9.88424 285.02 9.5758 284.795 9.35075C284.571 9.12564 284.263 9.01144 283.925 9.01144L248.387 9.01144C242.441 9.01144 237.65 13.8137 237.65 19.7695V55.2084C237.65 61.1642 242.441 65.9665 248.387 65.9665H254.647L254.647 81.6156C254.647 81.8487 254.706 82.0684 254.834 82.2611C254.953 82.4396 255.119 82.5774 255.315 82.682C255.425 82.7676 255.549 82.7974 255.626 82.8102C255.719 82.8258 255.808 82.8258 255.851 82.8258H255.855C256.025 82.8258 256.182 82.797 256.33 82.731C256.476 82.6662 256.595 82.5733 256.701 82.4678C256.702 82.4669 256.703 82.4659 256.704 82.465L273.937 65.9665H306.244C310.681 65.9665 314.672 63.2114 316.27 59.1217C316.521 58.4905 316.145 57.7846 315.559 57.5501C314.928 57.2968 314.222 57.6754 313.988 58.2613ZM314.227 18.2152L302.388 18.2152V9.53347C302.388 6.1149 301.337 3.49124 299.325 2.0252L299.325 2.02452C297.692 0.842865 295.779 0.602005 294.278 0.657291C293.525 0.685038 292.866 0.787614 292.384 0.888989C292.143 0.939711 291.944 0.990392 291.799 1.0318C291.726 1.05248 291.666 1.07114 291.619 1.08668C291.581 1.09922 291.531 1.11657 291.494 1.13497C291.067 1.34924 290.7 1.79723 290.7 2.30806V11.7699C290.7 15.5289 288.542 18.0597 286.296 19.6791C284.073 21.282 281.807 21.9583 281.615 22.0089C281.281 22.0793 281.037 22.3095 280.894 22.5674C280.844 22.6563 280.805 22.7523 280.777 22.8523C279.961 21.6146 278.56 20.7957 276.972 20.7957L272.165 20.7957C269.653 20.7957 267.609 22.8455 267.609 25.3606V47.0368C267.609 49.5519 269.653 51.6016 272.165 51.6016H276.972C278.383 51.6016 279.641 50.9359 280.487 49.8793C281.852 51.7203 283.978 52.9779 286.501 52.9779H309.592C312.099 52.9779 314.18 52.3163 315.705 51.0594C317.232 49.8014 318.17 47.9743 318.437 45.7083L321.439 26.6262C321.71 25.2622 321.525 23.9949 321.081 22.7486L321.077 22.7377L321.073 22.7272C319.902 20.0202 317.202 18.2152 314.227 18.2152ZM281.528 25.3606C281.528 24.982 281.482 24.6139 281.395 24.2618C281.634 24.3793 281.927 24.4252 282.214 24.3237C282.219 24.3228 282.223 24.3219 282.227 24.321C282.235 24.3191 282.244 24.317 282.252 24.3149C282.283 24.3073 282.322 24.2967 282.368 24.2835C282.46 24.2569 282.586 24.2176 282.742 24.165C283.053 24.0596 283.485 23.8997 283.997 23.6795C285.02 23.2394 286.369 22.5555 287.715 21.5796C290.405 19.6292 293.117 16.4829 293.117 11.7699V3.28018C294.283 3.05802 296.339 2.94819 297.886 4.05496L297.887 4.05609C299.211 4.99266 299.971 6.83002 299.971 9.61949V19.5114C299.971 19.8488 300.085 20.1572 300.309 20.3823C300.534 20.6074 300.842 20.7216 301.18 20.7216L314.227 20.7216C316.228 20.7216 317.994 21.9233 318.799 23.7796L318.806 23.7951L318.814 23.8099C319.194 24.4951 319.281 25.3542 319.119 26.2443L319.119 26.2443L319.118 26.2524L316.114 45.3481L316.112 45.3553L316.112 45.3625C315.866 47.498 314.913 48.7551 313.722 49.4916C312.512 50.2392 311.019 50.4716 309.678 50.4716H286.501C283.776 50.4716 281.528 48.2205 281.528 45.4885V25.3606ZM276.972 23.2161C278.152 23.2161 279.112 24.1769 279.112 25.3606V46.9508C279.112 48.1344 278.152 49.0953 276.972 49.0953H272.165C270.986 49.0953 270.026 48.1344 270.026 46.9508V25.3606C270.026 24.1769 270.986 23.2161 272.165 23.2161L276.972 23.2161Z" stroke="#30D5C8" stroke-width="0.7"/>
<path d="M313.988 58.2613L313.988 58.2628C312.752 61.3985 309.619 63.5461 306.244 63.5461L273.453 63.5461C273.283 63.5461 273.126 63.5749 272.978 63.6409C272.832 63.7057 272.713 63.7987 272.607 63.9042C272.606 63.9051 272.605 63.906 272.604 63.9069L257.064 78.8164V64.7563C257.064 64.4189 256.95 64.1105 256.725 63.8854C256.501 63.6603 256.192 63.5461 255.855 63.5461L248.387 63.5461C243.774 63.5461 240.067 59.8327 240.067 55.2084V19.7695C240.067 15.1452 243.774 11.4318 248.387 11.4318L283.925 11.4318C284.263 11.4318 284.571 11.3176 284.795 11.0925C285.02 10.8674 285.134 10.559 285.134 10.2216C285.134 9.88424 285.02 9.5758 284.795 9.35075C284.571 9.12564 284.263 9.01144 283.925 9.01144L248.387 9.01144C242.441 9.01144 237.65 13.8137 237.65 19.7695V55.2084C237.65 61.1642 242.441 65.9665 248.387 65.9665H254.647L254.647 81.6156C254.647 81.8487 254.706 82.0684 254.834 82.2611C254.953 82.4396 255.119 82.5774 255.315 82.682C255.425 82.7676 255.549 82.7974 255.626 82.8102C255.719 82.8258 255.808 82.8258 255.851 82.8258H255.855C256.025 82.8258 256.182 82.797 256.33 82.731C256.476 82.6662 256.595 82.5733 256.701 82.4678C256.702 82.4669 256.703 82.4659 256.704 82.465L273.937 65.9665H306.244C310.681 65.9665 314.672 63.2114 316.27 59.1217C316.521 58.4905 316.145 57.7846 315.559 57.5501C314.928 57.2968 314.222 57.6754 313.988 58.2613ZM314.227 18.2152L302.388 18.2152V9.53347C302.388 6.1149 301.337 3.49124 299.325 2.0252L299.325 2.02452C297.692 0.842865 295.779 0.602005 294.278 0.657291C293.525 0.685038 292.866 0.787614 292.384 0.888989C292.143 0.939711 291.944 0.990392 291.799 1.0318C291.726 1.05248 291.666 1.07114 291.619 1.08668C291.581 1.09922 291.531 1.11657 291.494 1.13497C291.067 1.34924 290.7 1.79723 290.7 2.30806V11.7699C290.7 15.5289 288.542 18.0597 286.296 19.6791C284.073 21.282 281.807 21.9583 281.615 22.0089C281.281 22.0793 281.037 22.3095 280.894 22.5674C280.844 22.6563 280.805 22.7523 280.777 22.8523C279.961 21.6146 278.56 20.7957 276.972 20.7957L272.165 20.7957C269.653 20.7957 267.609 22.8455 267.609 25.3606V47.0368C267.609 49.5519 269.653 51.6016 272.165 51.6016H276.972C278.383 51.6016 279.641 50.9359 280.487 49.8793C281.852 51.7203 283.978 52.9779 286.501 52.9779H309.592C312.099 52.9779 314.18 52.3163 315.705 51.0594C317.232 49.8014 318.17 47.9743 318.437 45.7083L321.439 26.6262C321.71 25.2622 321.525 23.9949 321.081 22.7486L321.077 22.7377L321.073 22.7272C319.902 20.0202 317.202 18.2152 314.227 18.2152ZM281.528 25.3606C281.528 24.982 281.482 24.6139 281.395 24.2618C281.634 24.3793 281.927 24.4252 282.214 24.3237C282.219 24.3228 282.223 24.3219 282.227 24.321C282.235 24.3191 282.244 24.317 282.252 24.3149C282.283 24.3073 282.322 24.2967 282.368 24.2835C282.46 24.2569 282.586 24.2176 282.742 24.165C283.053 24.0596 283.485 23.8997 283.997 23.6795C285.02 23.2394 286.369 22.5555 287.715 21.5796C290.405 19.6292 293.117 16.4829 293.117 11.7699V3.28018C294.283 3.05802 296.339 2.94819 297.886 4.05496L297.887 4.05609C299.211 4.99266 299.971 6.83002 299.971 9.61949V19.5114C299.971 19.8488 300.085 20.1572 300.309 20.3823C300.534 20.6074 300.842 20.7216 301.18 20.7216L314.227 20.7216C316.228 20.7216 317.994 21.9233 318.799 23.7796L318.806 23.7951L318.814 23.8099C319.194 24.4951 319.281 25.3542 319.119 26.2443L319.119 26.2443L319.118 26.2524L316.114 45.3481L316.112 45.3553L316.112 45.3625C315.866 47.498 314.913 48.7551 313.722 49.4916C312.512 50.2392 311.019 50.4716 309.678 50.4716H286.501C283.776 50.4716 281.528 48.2205 281.528 45.4885V25.3606ZM276.972 23.2161C278.152 23.2161 279.112 24.1769 279.112 25.3606V46.9508C279.112 48.1344 278.152 49.0953 276.972 49.0953H272.165C270.986 49.0953 270.026 48.1344 270.026 46.9508V25.3606C270.026 24.1769 270.986 23.2161 272.165 23.2161L276.972 23.2161Z" stroke="#30D5C8" stroke-width="0.7"/>
<path d="M8.1 143H37.7C52.8 143 61.5 135.7 61.5 123.2C61.5 114.7 57.6 108.9 49.9 106.4C56.8 103.5 60.4 97.6999 60.4 89.5999C60.4 77.3999 51.6 69.8999 37.2 69.8999H8.1V143ZM36.1 81.1999C43.3 81.1999 47.3 84.5999 47.3 90.8999C47.3 97.3999 43.4 101.1 36.4 101.1H20.9V81.1999H36.1ZM37.2 111.9C44.3 111.9 48.4 115.4 48.4 121.6C48.4 128.2 44.4 131.7 37.2 131.7H20.9V111.9H37.2ZM104.937 93.5999V119.5C104.937 128.9 101.237 133.4 93.5367 133.4C86.7367 133.4 83.0367 129.6 83.0367 120.2V93.5999H70.8367V124.5C70.8367 136.6 77.5367 144.3 88.9367 144.3C95.5367 144.3 101.937 141.1 104.937 136.4L105.837 143H117.137V93.5999H104.937ZM125.438 165.9C128.138 166.6 131.138 167 134.538 167C142.638 167 147.838 163.2 151.538 154L175.738 93.5999H163.138L149.738 129.6L137.038 93.5999H124.138L144.038 145.1L142.638 148.8C140.538 154.6 137.538 155.7 132.738 155.7H125.438V165.9ZM202.521 144.3C215.421 144.3 224.421 137.8 226.521 127H215.221C213.821 131.7 209.421 134.3 202.721 134.3C194.621 134.3 190.021 129.9 189.121 121.2L226.321 121.1V117.4C226.321 102 216.921 92.0999 202.121 92.0999C187.621 92.0999 177.521 102.8 177.521 118.3C177.521 133.6 187.821 144.3 202.521 144.3ZM202.221 102.1C209.521 102.1 214.221 106.6 214.221 113.4H189.421C190.621 106 195.021 102.1 202.221 102.1ZM267.085 93.3999C265.085 92.8999 263.385 92.6999 261.685 92.6999C255.085 92.6999 250.385 95.9999 248.285 100.9L247.585 93.6999H236.085V143H248.285V119C248.285 109.4 253.785 104.7 262.585 104.7H267.085V93.3999ZM313.815 143V132.8H288.815L313.815 103.7V93.5999H273.915V103.8H298.515L273.915 133V143H313.815ZM338.48 144.3C346.18 144.3 352.88 140.8 354.98 135.7L355.88 143H366.58V113C366.58 99.2999 358.38 92.0999 345.08 92.0999C331.68 92.0999 322.88 99.0999 322.88 109.8H333.28C333.28 104.6 337.28 101.6 344.48 101.6C350.68 101.6 354.68 104.3 354.68 111V112.1L339.88 113.2C328.18 114.1 321.58 119.8 321.58 128.9C321.58 138.2 327.98 144.3 338.48 144.3ZM342.48 135.1C336.98 135.1 333.98 132.9 333.98 128.4C333.98 124.4 336.88 121.9 344.48 121.2L354.78 120.4V123C354.78 130.6 349.98 135.1 342.48 135.1ZM378.566 165.9H390.766V136.4C393.866 141.4 400.266 144.3 407.666 144.3C422.366 144.3 430.766 133.1 430.766 117.7C430.766 102.2 421.566 92.0999 407.666 92.0999C400.166 92.0999 393.666 95.3999 390.666 101.1L389.866 93.5999H378.566V165.9ZM390.866 118.3C390.866 109.4 396.366 103.2 404.766 103.2C413.366 103.2 418.466 109.5 418.466 118.3C418.466 127.1 413.366 133.3 404.766 133.3C396.366 133.3 390.866 127.2 390.866 118.3Z" fill="white"/>
</svg>
